X: 1
T: Reel Of Tully, The
M: 4/4
L: 1/8
R: reel
K: Amaj
e2cA eAAc|eAcA BEEc|e2cA eAcA|BEBc d2cd|
e2cA eAAc|eAcA BEBc|eAcA eAcA|BEBc d2cd|
cAc/d/e cAAd|cAc/d/e BEEd|cAc/d/e cAAc|BEBc d2cB|
cAc/d/e cAAd|cAc/d/e BEEd|cEeE dEcE|BEBc d2cd|
